packages/blockchain-info-components/src/Images/img/buy-wallet.svg

<svg fill="none" height="165" viewBox="0 0 282 165" width="282" xmlns="http://www.w3.org/2000/svg"><path d="m34.8145 149.795h24.3703" stroke="#0c6cf2" stroke-linecap="round" stroke-linejoin="round" stroke-miterlimit="10" stroke-width="3"/><path d="m217.013 149.795h24.37" stroke="#0c6cf2" stroke-linecap="round" stroke-linejoin="round" stroke-miterlimit="10" stroke-width="3"/><path d="m58.0252 142.755h-33.6544c-6.0926 0-11.0247-4.786-11.0247-10.699s4.9321-10.7 11.0247-10.7h8.7037c2.8897 0 5.2223-2.264 5.2223-5.068 0-2.805-2.3326-5.069-5.2223-5.069h-20.8888c-3.84128 0-6.96301-3.029-6.96301-6.757s3.12173-6.758 6.96301-6.758h26.6913c3.8412 0 6.963-3.0297 6.963-6.7577 0-3.7279-3.1218-6.7576-6.963-6.7576h-22.6296c-8.00742 0-14.50619-6.3072-14.50619-14.0785 0-7.7714 6.49877-14.0785 14.50619-14.0785h16.8271c2.8897 0 5.2223-2.2639 5.2223-5.0683s-2.3326-5.0683-5.2223-5.0683h-16.8271c-4.1662 0-7.54323-3.2774-7.54323-7.3208 0-4.0433 3.37703-7.3208 7.54323-7.3208h35.9753c2.8896 0 5.2222-2.2638 5.2222-5.0683 0-2.8044-2.3326-5.0682-5.2222-5.0682h-24.3704c-2.8896 0-5.2222-2.2638-5.2222-5.0683 0-2.8044 2.3326-5.0682 5.2222-5.0682h216.4317c4.492 0 8.124 3.5252 8.124 7.8839s-3.632 7.884-8.124 7.884h-24.95c-2.24 0-4.062 1.7682-4.062 3.942 0 2.1737 1.822 3.9419 4.062 3.9419h47.58c2.24 0 4.062 1.7683 4.062 3.942s-1.822 3.942-4.062 3.942h-20.309c-3.841 0-6.963 3.0297-6.963 6.7577s3.122 6.7577 6.963 6.7577h17.408c8.97 0 16.247 7.0617 16.247 15.7679 0 8.7061-7.277 15.7679-16.247 15.7679h-17.988c-3.203 0-5.802 2.5229-5.802 5.6314s2.599 5.6314 5.802 5.6314h16.247c7.369 0 13.346 5.8007 13.346 12.9527 0 7.151-5.977 12.952-13.346 12.952h-23.21c-2.24 0-4.062 1.768-4.062 3.942 0 2.173 1.822 3.942 4.062 3.942h15.087c2.889 0 5.222 2.264 5.222 5.068s-2.333 5.068-5.222 5.068h-40.618" stroke="#dfe3eb" stroke-linecap="round" stroke-linejoin="round" stroke-miterlimit="10" stroke-width="3"/><path d="m69.3397 156.272h136.9383c7.056 0 12.765-5.541 12.765-12.389v-20.273h-41.777c-2.867 0-5.536-.755-7.845-2.061-14.518 9.483-31.995 15.013-50.807 15.013h-62.0398v7.321c0 6.848 5.7096 12.389 12.7655 12.389z" fill="#bbdbfc"/><path d="m207.601 67.2277c-2.112 9.2919-5.721 18.0318-10.583 25.9721h22.026v-38.2936c0 6.4086-5.014 11.6796-11.443 12.3215z" fill="#bbdbfc"/><path d="m206.568 67.577h-136.9383c-7.0558 0-12.7654-5.5413-12.7654-12.3891s5.7096-12.3891 12.7654-12.3891h136.9383c7.056 0 12.765 5.5413 12.765 12.3891s-5.709 12.3891-12.765 12.3891z" style="fill:#fff;stroke:#0c6cf2;stroke-width:3;stroke-miterlimit:10;stroke-linecap:round;stroke-linejoin:round"/><path d="m177.846 115.162c3.845 0 6.963-3.026 6.963-6.758s-3.118-6.758-6.963-6.758c-3.846 0-6.963 3.026-6.963 6.758s3.117 6.758 6.963 6.758z" style="fill:#bbdbfc;stroke:#bbdbfc;stroke-width:3;stroke-miterlimit:10;stroke-linecap:round;stroke-linejoin:round"/><path d="m204.758 48.9941h-133.6659c-2.82 0-5.4079 1.8021-5.9766 4.4488-.7659 3.6154 2.1121 6.814 5.7445 6.814h133.666c2.82 0 5.408-1.802 5.976-4.4488.778-3.6266-2.1-6.814-5.744-6.814z" fill="#bbdbfc"/><path d="m177.962 123.891c-8.042 0-15.098-5.722-15.98-13.471-1.033-9.179 6.336-16.939 15.574-16.939h41.777v-38.2935c0 6.8478-5.709 12.3891-12.765 12.3891h-136.9383c-7.0558 0-12.7654-5.5413-12.7654-12.3891v88.9765c0 6.847 5.7096 12.389 12.7654 12.389h136.9383c7.056 0 12.765-5.542 12.765-12.389v-20.273z" stroke="#0c6cf2" stroke-linecap="round" stroke-linejoin="round" stroke-miterlimit="10" stroke-width="3"/><path d="m104.305 20.5659c5.371 0 9.725-4.2256 9.725-9.4382 0-5.21261-4.354-9.43825-9.725-9.43825-5.3709 0-9.7249 4.22564-9.7249 9.43825 0 5.2126 4.354 9.4382 9.7249 9.4382z" style="fill:#0c6cf2;stroke:#bbdbfc;stroke-width:3;stroke-miterlimit:10;stroke-linecap:round;stroke-linejoin:round"/><path d="m104.305 13.3909c1.289 0 2.333-1.0135 2.333-2.2638 0-1.25027-1.044-2.26382-2.333-2.26382-1.288 0-2.332 1.01355-2.332 2.26382 0 1.2503 1.044 2.2638 2.332 2.2638z" fill="#fff"/><path d="m104.305 9.41534c.964 0 1.753.76586 1.753 1.70066s-.789 1.7007-1.753 1.7007c-.963 0-1.752-.7659-1.752-1.7007s.778-1.70066 1.752-1.70066zm0-1.12628c-1.613 0-2.912 1.26144-2.912 2.82694 0 1.5656 1.299 2.827 2.912 2.827s2.913-1.2614 2.913-2.827c0-1.5655-1.311-2.82694-2.913-2.82694z" fill="#fff"/><g stroke-linecap="round" stroke-linejoin="round" stroke-miterlimit="10" stroke-width="3"><path d="m76.4534 30.7028c3.4482 0 6.2435-2.7129 6.2435-6.0594s-2.7953-6.0594-6.2435-6.0594-6.2434 2.7129-6.2434 6.0594 2.7952 6.0594 6.2434 6.0594z" fill="#0c6cf2" stroke="#bbdbfc"/><path d="m199.466 30.7028c3.448 0 6.244-2.7129 6.244-6.0594s-2.796-6.0594-6.244-6.0594-6.243 2.7129-6.243 6.0594 2.795 6.0594 6.243 6.0594z" fill="#0c6cf2" stroke="#bbdbfc"/><path d="m152.605 68.9838c17.946 0 32.494-14.1191 32.494-31.5359 0-17.4167-14.548-31.53579-32.494-31.53579s-32.494 14.11909-32.494 31.53579c0 17.4168 14.548 31.5359 32.494 31.5359z" fill="#fff" stroke="#bbdbfc"/><path d="m152.605 62.3942c14.197 0 25.705-11.1692 25.705-24.9471s-11.508-24.9471-25.705-24.9471c-14.196 0-25.705 11.1692-25.705 24.9471s11.509 24.9471 25.705 24.9471z" fill="#0c6cf2" stroke="#bbdbfc"/><path d="m152.118 5.91211v6.58869" stroke="#bbdbfc"/><path d="m135.94 10.373 3.389 5.7103" stroke="#bbdbfc"/><path d="m124.22 22.0859 5.883 3.3" stroke="#bbdbfc"/><path d="m120.111 37.9219h6.789" stroke="#bbdbfc"/><path d="m124.707 53.6208 5.884-3.2888" stroke="#bbdbfc"/><path d="m136.776 64.9973 3.401-5.7102" stroke="#bbdbfc"/><path d="m153.093 68.9833v-6.5888" stroke="#bbdbfc"/><path d="m169.27 64.5227-3.389-5.7102" stroke="#bbdbfc"/><path d="m180.991 52.8098-5.884-3.3" stroke="#bbdbfc"/><path d="m185.099 36.9746h-6.788" stroke="#bbdbfc"/><path d="m180.504 21.2754-5.884 3.2887" stroke="#bbdbfc"/><path d="m168.434 9.89844-3.4 5.71026" stroke="#bbdbfc"/></g><path d="m150.935 20.373 1.16 12.6256 11.431 3.8069z" fill="#fff"/><path d="m150.934 20.373-9.388 18.3471 10.549-5.7215z" fill="#fff"/><path d="m153.29 45.939.789 8.571 9.632-15.7229z" fill="#fff"/><path d="m154.078 54.5226-.789-8.5823-11.559-5.2372z" fill="#fff"/><path d="m153.104 43.9567 10.422-7.1518-11.431-3.8069z" fill="#fff"/><path d="m141.546 38.7196 11.558 5.2371-1.009-10.9587z" fill="#fff"/><path d="m109.666 108.405c21.151 0 38.297-16.6406 38.297-37.1675s-17.146-37.1672-38.297-37.1672c-21.15 0-38.2959 16.6403-38.2959 37.1672s17.1459 37.1675 38.2959 37.1675z" style="fill:#fff;stroke:#bbdbfc;stroke-width:3;stroke-miterlimit:10;stroke-linecap:round;stroke-linejoin:round"/><path d="m109.667 100.634c16.728 0 30.289-13.1614 30.289-29.3963s-13.561-29.3959-30.289-29.3959c-16.7283 0-30.2891 13.161-30.2891 29.3959s13.5608 29.3963 30.2891 29.3963z" style="fill:#0c6cf2;stroke:#bbdbfc;stroke-width:3;stroke-miterlimit:10;stroke-linecap:round;stroke-linejoin:round"/><path d="m124.834 68.6691c1.3-3.9645-1.532-6.645-5.652-8.785l2.321-5.2935-3.319-1.374-2.263 5.1471c-.87-.3605-1.764-.7096-2.669-1.0588l2.275-5.1808-3.319-1.3741-2.321 5.2823c-.72-.2816-1.439-.5632-2.124-.8448h.012l-4.573-1.8921-1.508 3.4351s2.471.9686 2.413.9912c1.347.5518 1.451 1.4979 1.289 2.1962l-6.3599 14.484c-.2437.3829-.7775.9348-1.7175.5519.0232.0563-2.4139-.9912-2.4139-.9912l-2.3442 3.5703 4.3171 1.7796c.8007.3378 1.5899.6757 2.3558 1.0023l-2.3442 5.3499 3.3188 1.374 2.321-5.2935c.905.3942 1.776.7659 2.635 1.115l-2.31 5.271 3.319 1.3741 2.344-5.3386c5.71 1.9935 10.213 2.2413 12.928-2.6355 2.194-3.9307 1.01-6.5774-1.833-8.6273 2.344-.1464 4.27-1.329 5.222-4.2348zm-9.667 9.5171c-1.752 3.9983-8.599.6307-10.851-.3041l3.11-7.0843c2.252.9348 9.575 3.2211 7.741 7.3884zm2.843-10.6321c-1.601 3.6379-7.288.7771-9.156.0113l2.82-6.4198c1.868.7546 8.007 2.6129 6.336 6.4085z" fill="#fff"/><path d="m109.098 34.0703v7.7713" stroke="#bbdbfc" stroke-linecap="round" stroke-linejoin="round" stroke-miterlimit="10" stroke-width="3"/><path d="m90.0195 39.3301 4.0037 6.7239" stroke="#bbdbfc" stroke-linecap="round" stroke-linejoin="round" stroke-miterlimit="10" stroke-width="3"/><path d="m76.209 53.1387 6.9397 3.8744" stroke="#bbdbfc" stroke-linecap="round" stroke-linejoin="round" stroke-miterlimit="10" stroke-width="3"/><path d="m71.3701 71.7891h8.0074" stroke="#bbdbfc" stroke-linecap="round" stroke-linejoin="round" stroke-miterlimit="10" stroke-width="3"/><path d="m76.79 90.3056 6.9282-3.8857" stroke="#bbdbfc" stroke-linecap="round" stroke-linejoin="round" stroke-miterlimit="10" stroke-width="3"/><path d="m91.0176 103.708 3.9921-6.7353" stroke="#bbdbfc" stroke-linecap="round" stroke-linejoin="round" stroke-miterlimit="10" stroke-width="3"/><path d="m110.235 108.404v-7.771" stroke="#bbdbfc" stroke-linecap="round" stroke-linejoin="round" stroke-miterlimit="10" stroke-width="3"/><path d="m129.313 103.146-4.003-6.7241" stroke="#bbdbfc" stroke-linecap="round" stroke-linejoin="round" stroke-miterlimit="10" stroke-width="3"/><path d="m143.123 89.3373-6.939-3.8744" stroke="#bbdbfc" stroke-linecap="round" stroke-linejoin="round" stroke-miterlimit="10" stroke-width="3"/><path d="m147.962 70.6855h-8.007" stroke="#bbdbfc" stroke-linecap="round" stroke-linejoin="round" stroke-miterlimit="10" stroke-width="3"/><path d="m142.543 52.1699-6.928 3.8857" stroke="#bbdbfc" stroke-linecap="round" stroke-linejoin="round" stroke-miterlimit="10" stroke-width="3"/><path d="m128.315 38.7676-3.992 6.7351" stroke="#bbdbfc" stroke-linecap="round" stroke-linejoin="round" stroke-miterlimit="10" stroke-width="3"/><path d="m53.3828 156.553h170.5922" stroke="#0c6cf2" stroke-linecap="round" stroke-linejoin="round" stroke-miterlimit="10" stroke-width="3"/><path d="m66.7285 163.311h143.9015" stroke="#0c6cf2" stroke-linecap="round" stroke-linejoin="round" stroke-miterlimit="10" stroke-width="3"/><path d="m219.333 93.4805h3.76c1.126 0 2.042.8897 2.042 1.9822v26.4563c0 1.093-.916 1.982-2.042 1.982h-3.76" stroke="#0c6cf2" stroke-linecap="round" stroke-linejoin="round" stroke-miterlimit="10" stroke-width="3"/></svg>

<svg width="282" height="165" viewBox="0 0 282 165" fill="none" xmlns="http://www.w3.org/2000/svg">
<path d="M34.8145 149.795H59.1848" stroke="#0C6CF2" stroke-width="3" stroke-miterlimit="10" stroke-linecap="round" stroke-linejoin="round"/>
<path d="M217.013 149.795H241.383" stroke="#0C6CF2" stroke-width="3" stroke-miterlimit="10" stroke-linecap="round" stroke-linejoin="round"/>
<path d="M58.0252 142.755H24.3708C18.2782 142.755 13.3461 137.969 13.3461 132.056C13.3461 126.143 18.2782 121.356 24.3708 121.356H33.0745C35.9642 121.356 38.2968 119.092 38.2968 116.288C38.2968 113.483 35.9642 111.219 33.0745 111.219H12.1857C8.34442 111.219 5.22269 108.19 5.22269 104.462C5.22269 100.734 8.34442 97.704 12.1857 97.704H38.877C42.7182 97.704 45.84 94.6743 45.84 90.9463C45.84 87.2184 42.7182 84.1887 38.877 84.1887H16.2474C8.23998 84.1887 1.74121 77.8815 1.74121 70.1102C1.74121 62.3388 8.23998 56.0317 16.2474 56.0317H33.0745C35.9642 56.0317 38.2968 53.7678 38.2968 50.9634C38.2968 48.159 35.9642 45.8951 33.0745 45.8951H16.2474C12.0812 45.8951 8.70417 42.6177 8.70417 38.5743C8.70417 34.531 12.0812 31.2535 16.2474 31.2535H52.2227C55.1123 31.2535 57.4449 28.9897 57.4449 26.1852C57.4449 23.3808 55.1123 21.117 52.2227 21.117H27.8523C24.9627 21.117 22.6301 18.8532 22.6301 16.0487C22.6301 13.2443 24.9627 10.9805 27.8523 10.9805H244.284C248.776 10.9805 252.408 14.5057 252.408 18.8644C252.408 23.2231 248.776 26.7484 244.284 26.7484H219.334C217.094 26.7484 215.272 28.5166 215.272 30.6904C215.272 32.8641 217.094 34.6323 219.334 34.6323H266.914C269.154 34.6323 270.976 36.4006 270.976 38.5743C270.976 40.748 269.154 42.5163 266.914 42.5163H246.605C242.764 42.5163 239.642 45.546 239.642 49.274C239.642 53.002 242.764 56.0317 246.605 56.0317H264.013C272.983 56.0317 280.26 63.0934 280.26 71.7996C280.26 80.5057 272.983 87.5675 264.013 87.5675H246.025C242.822 87.5675 240.223 90.0904 240.223 93.1989C240.223 96.3074 242.822 98.8303 246.025 98.8303H262.272C269.641 98.8303 275.618 104.631 275.618 111.783C275.618 118.934 269.641 124.735 262.272 124.735H239.062C236.822 124.735 235 126.503 235 128.677C235 130.85 236.822 132.619 239.062 132.619H254.149C257.038 132.619 259.371 134.883 259.371 137.687C259.371 140.491 257.038 142.755 254.149 142.755H213.531" stroke="#DFE3EB" stroke-width="3" stroke-miterlimit="10" stroke-linecap="round" stroke-linejoin="round"/>
<path d="M69.3397 156.272H206.278C213.334 156.272 219.043 150.731 219.043 143.883V123.61H177.266C174.399 123.61 171.73 122.855 169.421 121.549C154.903 131.032 137.426 136.562 118.614 136.562H56.5742V143.883C56.5742 150.731 62.2838 156.272 69.3397 156.272Z" fill="#BBDBFC"/>
<path d="M207.601 67.2277C205.489 76.5196 201.88 85.2595 197.018 93.1998H219.044V54.9062C219.044 61.3148 214.03 66.5858 207.601 67.2277Z" fill="#BBDBFC"/>
<path d="M206.568 67.577H69.6297C62.5739 67.577 56.8643 62.0357 56.8643 55.1879C56.8643 48.3401 62.5739 42.7988 69.6297 42.7988H206.568C213.624 42.7988 219.333 48.3401 219.333 55.1879C219.333 62.0357 213.624 67.577 206.568 67.577Z" fill="white" stroke="#0C6CF2" stroke-width="3" stroke-miterlimit="10" stroke-linecap="round" stroke-linejoin="round"/>
<path d="M177.846 115.162C181.691 115.162 184.809 112.136 184.809 108.404C184.809 104.672 181.691 101.646 177.846 101.646C174 101.646 170.883 104.672 170.883 108.404C170.883 112.136 174 115.162 177.846 115.162Z" fill="#BBDBFC" stroke="#BBDBFC" stroke-width="3" stroke-miterlimit="10" stroke-linecap="round" stroke-linejoin="round"/>
<path d="M204.758 48.9941H71.0921C68.2721 48.9941 65.6842 50.7962 65.1155 53.4429C64.3496 57.0583 67.2276 60.2569 70.86 60.2569H204.526C207.346 60.2569 209.934 58.4549 210.502 55.8081C211.28 52.1815 208.402 48.9941 204.758 48.9941Z" fill="#BBDBFC"/>
<path d="M177.962 123.891C169.92 123.891 162.864 118.169 161.982 110.42C160.949 101.241 168.318 93.481 177.556 93.481H219.333V55.1875C219.333 62.0353 213.624 67.5766 206.568 67.5766H69.6297C62.5739 67.5766 56.8643 62.0353 56.8643 55.1875V144.164C56.8643 151.011 62.5739 156.553 69.6297 156.553H206.568C213.624 156.553 219.333 151.011 219.333 144.164V123.891H177.962Z" stroke="#0C6CF2" stroke-width="3" stroke-miterlimit="10" stroke-linecap="round" stroke-linejoin="round"/>
<path d="M104.305 20.5659C109.676 20.5659 114.03 16.3403 114.03 11.1277C114.03 5.91509 109.676 1.68945 104.305 1.68945C98.9341 1.68945 94.5801 5.91509 94.5801 11.1277C94.5801 16.3403 98.9341 20.5659 104.305 20.5659Z" fill="#0C6CF2" stroke="#BBDBFC" stroke-width="3" stroke-miterlimit="10" stroke-linecap="round" stroke-linejoin="round"/>
<path d="M104.305 13.3909C105.594 13.3909 106.638 12.3774 106.638 11.1271C106.638 9.87683 105.594 8.86328 104.305 8.86328C103.017 8.86328 101.973 9.87683 101.973 11.1271C101.973 12.3774 103.017 13.3909 104.305 13.3909Z" fill="white"/>
<path d="M104.305 9.41534C105.269 9.41534 106.058 10.1812 106.058 11.116C106.058 12.0508 105.269 12.8167 104.305 12.8167C103.342 12.8167 102.553 12.0508 102.553 11.116C102.553 10.1812 103.331 9.41534 104.305 9.41534ZM104.305 8.28906C102.692 8.28906 101.393 9.5505 101.393 11.116C101.393 12.6816 102.692 13.943 104.305 13.943C105.918 13.943 107.218 12.6816 107.218 11.116C107.218 9.5505 105.907 8.28906 104.305 8.28906Z" fill="white"/>
<path d="M76.4534 30.7028C79.9016 30.7028 82.6969 27.9899 82.6969 24.6434C82.6969 21.2969 79.9016 18.584 76.4534 18.584C73.0052 18.584 70.21 21.2969 70.21 24.6434C70.21 27.9899 73.0052 30.7028 76.4534 30.7028Z" fill="#0C6CF2" stroke="#BBDBFC" stroke-width="3" stroke-miterlimit="10" stroke-linecap="round" stroke-linejoin="round"/>
<path d="M199.466 30.7028C202.914 30.7028 205.71 27.9899 205.71 24.6434C205.71 21.2969 202.914 18.584 199.466 18.584C196.018 18.584 193.223 21.2969 193.223 24.6434C193.223 27.9899 196.018 30.7028 199.466 30.7028Z" fill="#0C6CF2" stroke="#BBDBFC" stroke-width="3" stroke-miterlimit="10" stroke-linecap="round" stroke-linejoin="round"/>
<path d="M152.605 68.9838C170.551 68.9838 185.099 54.8647 185.099 37.4479C185.099 20.0312 170.551 5.91211 152.605 5.91211C134.659 5.91211 120.111 20.0312 120.111 37.4479C120.111 54.8647 134.659 68.9838 152.605 68.9838Z" fill="white" stroke="#BBDBFC" stroke-width="3" stroke-miterlimit="10" stroke-linecap="round" stroke-linejoin="round"/>
<path d="M152.605 62.3942C166.802 62.3942 178.31 51.225 178.31 37.4471C178.31 23.6692 166.802 12.5 152.605 12.5C138.409 12.5 126.9 23.6692 126.9 37.4471C126.9 51.225 138.409 62.3942 152.605 62.3942Z" fill="#0C6CF2" stroke="#BBDBFC" stroke-width="3" stroke-miterlimit="10" stroke-linecap="round" stroke-linejoin="round"/>
<path d="M152.118 5.91211V12.5008" stroke="#BBDBFC" stroke-width="3" stroke-miterlimit="10" stroke-linecap="round" stroke-linejoin="round"/>
<path d="M135.94 10.373L139.329 16.0833" stroke="#BBDBFC" stroke-width="3" stroke-miterlimit="10" stroke-linecap="round" stroke-linejoin="round"/>
<path d="M124.22 22.0859L130.103 25.3859" stroke="#BBDBFC" stroke-width="3" stroke-miterlimit="10" stroke-linecap="round" stroke-linejoin="round"/>
<path d="M120.111 37.9219H126.9" stroke="#BBDBFC" stroke-width="3" stroke-miterlimit="10" stroke-linecap="round" stroke-linejoin="round"/>
<path d="M124.707 53.6208L130.591 50.332" stroke="#BBDBFC" stroke-width="3" stroke-miterlimit="10" stroke-linecap="round" stroke-linejoin="round"/>
<path d="M136.776 64.9973L140.177 59.2871" stroke="#BBDBFC" stroke-width="3" stroke-miterlimit="10" stroke-linecap="round" stroke-linejoin="round"/>
<path d="M153.093 68.9833V62.3945" stroke="#BBDBFC" stroke-width="3" stroke-miterlimit="10" stroke-linecap="round" stroke-linejoin="round"/>
<path d="M169.27 64.5227L165.881 58.8125" stroke="#BBDBFC" stroke-width="3" stroke-miterlimit="10" stroke-linecap="round" stroke-linejoin="round"/>
<path d="M180.991 52.8098L175.107 49.5098" stroke="#BBDBFC" stroke-width="3" stroke-miterlimit="10" stroke-linecap="round" stroke-linejoin="round"/>
<path d="M185.099 36.9746H178.311" stroke="#BBDBFC" stroke-width="3" stroke-miterlimit="10" stroke-linecap="round" stroke-linejoin="round"/>
<path d="M180.504 21.2754L174.62 24.5641" stroke="#BBDBFC" stroke-width="3" stroke-miterlimit="10" stroke-linecap="round" stroke-linejoin="round"/>
<path d="M168.434 9.89844L165.034 15.6087" stroke="#BBDBFC" stroke-width="3" stroke-miterlimit="10" stroke-linecap="round" stroke-linejoin="round"/>
<path d="M150.935 20.373L152.095 32.9986L163.526 36.8055L150.935 20.373Z" fill="white"/>
<path d="M150.934 20.373L141.546 38.7201L152.095 32.9986L150.934 20.373Z" fill="white"/>
<path d="M153.29 45.939L154.079 54.51L163.711 38.7871L153.29 45.939Z" fill="white"/>
<path d="M154.078 54.5226L153.289 45.9403L141.73 40.7031L154.078 54.5226Z" fill="white"/>
<path d="M153.104 43.9567L163.526 36.8049L152.095 32.998L153.104 43.9567Z" fill="white"/>
<path d="M141.546 38.7196L153.104 43.9567L152.095 32.998L141.546 38.7196Z" fill="white"/>
<path d="M109.666 108.405C130.817 108.405 147.963 91.7644 147.963 71.2375C147.963 50.7106 130.817 34.0703 109.666 34.0703C88.516 34.0703 71.3701 50.7106 71.3701 71.2375C71.3701 91.7644 88.516 108.405 109.666 108.405Z" fill="white" stroke="#BBDBFC" stroke-width="3" stroke-miterlimit="10" stroke-linecap="round" stroke-linejoin="round"/>
<path d="M109.667 100.634C126.395 100.634 139.956 87.4726 139.956 71.2377C139.956 55.0028 126.395 41.8418 109.667 41.8418C92.9387 41.8418 79.3779 55.0028 79.3779 71.2377C79.3779 87.4726 92.9387 100.634 109.667 100.634Z" fill="#0C6CF2" stroke="#BBDBFC" stroke-width="3" stroke-miterlimit="10" stroke-linecap="round" stroke-linejoin="round"/>
<path d="M124.834 68.6691C126.134 64.7046 123.302 62.0241 119.182 59.8841L121.503 54.5906L118.184 53.2166L115.921 58.3637C115.051 58.0032 114.157 57.6541 113.252 57.3049L115.527 52.1241L112.208 50.75L109.887 56.0323C109.167 55.7507 108.448 55.4691 107.763 55.1875H107.775L103.202 53.2954L101.694 56.7305C101.694 56.7305 104.165 57.6991 104.107 57.7217C105.454 58.2735 105.558 59.2196 105.396 59.9179L99.0361 74.4019C98.7924 74.7848 98.2586 75.3367 97.3186 74.9538C97.3418 75.0101 94.9047 73.9626 94.9047 73.9626L92.5605 77.5329L96.8776 79.3125C97.6783 79.6503 98.4675 79.9882 99.2334 80.3148L96.8892 85.6647L100.208 87.0387L102.529 81.7452C103.434 82.1394 104.305 82.5111 105.164 82.8602L102.854 88.1312L106.173 89.5053L108.517 84.1667C114.227 86.1602 118.73 86.408 121.445 81.5312C123.639 77.6005 122.455 74.9538 119.612 72.9039C121.956 72.7575 123.882 71.5749 124.834 68.6691ZM115.167 78.1862C113.415 82.1845 106.568 78.8169 104.316 77.8821L107.426 70.7978C109.678 71.7326 117.001 74.0189 115.167 78.1862ZM118.01 67.5541C116.409 71.192 110.722 68.3312 108.854 67.5654L111.674 61.1456C113.542 61.9002 119.681 63.7585 118.01 67.5541Z" fill="white"/>
<path d="M109.098 34.0703V41.8416" stroke="#BBDBFC" stroke-width="3" stroke-miterlimit="10" stroke-linecap="round" stroke-linejoin="round"/>
<path d="M90.0195 39.3301L94.0232 46.054" stroke="#BBDBFC" stroke-width="3" stroke-miterlimit="10" stroke-linecap="round" stroke-linejoin="round"/>
<path d="M76.209 53.1387L83.1487 57.0131" stroke="#BBDBFC" stroke-width="3" stroke-miterlimit="10" stroke-linecap="round" stroke-linejoin="round"/>
<path d="M71.3701 71.7891H79.3775" stroke="#BBDBFC" stroke-width="3" stroke-miterlimit="10" stroke-linecap="round" stroke-linejoin="round"/>
<path d="M76.79 90.3056L83.7182 86.4199" stroke="#BBDBFC" stroke-width="3" stroke-miterlimit="10" stroke-linecap="round" stroke-linejoin="round"/>
<path d="M91.0176 103.708L95.0097 96.9727" stroke="#BBDBFC" stroke-width="3" stroke-miterlimit="10" stroke-linecap="round" stroke-linejoin="round"/>
<path d="M110.235 108.404V100.633" stroke="#BBDBFC" stroke-width="3" stroke-miterlimit="10" stroke-linecap="round" stroke-linejoin="round"/>
<path d="M129.313 103.146L125.31 96.4219" stroke="#BBDBFC" stroke-width="3" stroke-miterlimit="10" stroke-linecap="round" stroke-linejoin="round"/>
<path d="M143.123 89.3373L136.184 85.4629" stroke="#BBDBFC" stroke-width="3" stroke-miterlimit="10" stroke-linecap="round" stroke-linejoin="round"/>
<path d="M147.962 70.6855H139.955" stroke="#BBDBFC" stroke-width="3" stroke-miterlimit="10" stroke-linecap="round" stroke-linejoin="round"/>
<path d="M142.543 52.1699L135.615 56.0556" stroke="#BBDBFC" stroke-width="3" stroke-miterlimit="10" stroke-linecap="round" stroke-linejoin="round"/>
<path d="M128.315 38.7676L124.323 45.5027" stroke="#BBDBFC" stroke-width="3" stroke-miterlimit="10" stroke-linecap="round" stroke-linejoin="round"/>
<path d="M53.3828 156.553H223.975" stroke="#0C6CF2" stroke-width="3" stroke-miterlimit="10" stroke-linecap="round" stroke-linejoin="round"/>
<path d="M66.7285 163.311H210.63" stroke="#0C6CF2" stroke-width="3" stroke-miterlimit="10" stroke-linecap="round" stroke-linejoin="round"/>
<path d="M219.333 93.4805H223.093C224.219 93.4805 225.135 94.3702 225.135 95.4627V121.919C225.135 123.012 224.219 123.901 223.093 123.901H219.333" stroke="#0C6CF2" stroke-width="3" stroke-miterlimit="10" stroke-linecap="round" stroke-linejoin="round"/>
</svg>
